public/logos/VT.svg

<?xml version="1.0" encoding="UTF-8"?>
<svg xmlns="http://www.w3.org/2000/svg" xmlns:xlink="http://www.w3.org/1999/xlink" width="176pt" height="26.15pt" viewBox="0 0 176 26.15" version="1.1">
<defs>
<clipPath id="clip1">
  <path d="M 0 0 L 176 0 L 176 26.148438 L 0 26.148438 Z M 0 0 "/>
</clipPath>
</defs>
<g id="surface1">
<g clip-path="url(#clip1)" clip-rule="nonzero">
<path style=" stroke:none;fill-rule:evenodd;fill:rgb(92.262268%,11.434937%,15.112305%);fill-opacity:1;" d="M 168.050781 24.199219 L 170.21875 8.46875 L 176 8.46875 L 173.828125 24.199219 Z M 158.238281 24.199219 L 159.695312 13.640625 L 156.550781 13.640625 L 157.265625 8.46875 L 169.238281 8.46875 L 168.527344 13.640625 L 165.355469 13.640625 L 163.898438 24.199219 Z M 148.605469 24.199219 L 150.773438 8.46875 L 156.554688 8.46875 L 154.382812 24.199219 Z M 132.96875 24.199219 L 135.140625 8.46875 L 140.820312 8.46875 L 140.097656 13.714844 L 143.539062 13.714844 L 144.261719 8.46875 L 149.917969 8.46875 L 147.75 24.199219 L 142.089844 24.199219 L 142.855469 18.664062 L 139.414062 18.664062 L 138.652344 24.199219 Z M 125.382812 13.222656 L 123.539062 18.46875 L 125.90625 18.46875 C 125.894531 18.417969 125.886719 18.367188 125.878906 18.308594 C 125.871094 18.253906 125.859375 18.199219 125.851562 18.152344 C 125.820312 17.890625 125.789062 17.636719 125.75 17.382812 C 125.710938 17.132812 125.675781 16.875 125.648438 16.613281 C 125.578125 16.0625 125.523438 15.511719 125.488281 14.957031 C 125.449219 14.40625 125.457031 13.828125 125.507812 13.222656 Z M 115.308594 24.199219 L 123.039062 8.46875 L 129.332031 8.46875 L 132.648438 24.199219 L 126.601562 24.199219 L 126.339844 22.199219 L 122.097656 22.199219 L 121.308594 24.199219 Z M 108.574219 24.199219 L 110.035156 13.640625 L 106.886719 13.640625 L 107.601562 8.46875 L 119.574219 8.46875 L 118.863281 13.640625 L 115.691406 13.640625 L 114.234375 24.199219 Z M 96.835938 14.03125 C 96.917969 13.410156 96.804688 12.996094 96.496094 12.785156 C 96.183594 12.574219 95.824219 12.453125 95.421875 12.421875 C 95.359375 12.421875 95.292969 12.421875 95.226562 12.421875 C 95.164062 12.421875 95.097656 12.421875 95.03125 12.421875 L 94.472656 12.421875 L 94.035156 15.589844 C 94.097656 15.589844 94.160156 15.589844 94.21875 15.589844 C 94.273438 15.589844 94.335938 15.589844 94.398438 15.589844 C 94.953125 15.589844 95.472656 15.503906 95.960938 15.335938 C 96.445312 15.164062 96.738281 14.726562 96.835938 14.03125 Z M 87.285156 24.199219 L 89.457031 8.46875 L 96.578125 8.46875 C 97.40625 8.46875 98.199219 8.539062 98.949219 8.675781 C 99.703125 8.816406 100.367188 9.160156 100.941406 9.714844 C 101.375 10.101562 101.703125 10.617188 101.925781 11.25 C 102.148438 11.882812 102.242188 12.542969 102.214844 13.222656 C 102.214844 13.324219 102.214844 13.429688 102.207031 13.542969 C 102.199219 13.65625 102.1875 13.761719 102.175781 13.859375 C 102.046875 14.785156 101.691406 15.632812 101.105469 16.394531 C 100.519531 17.160156 99.695312 17.625 98.632812 17.785156 L 101.941406 24.199219 L 95.625 24.199219 L 93.5625 19.003906 L 92.847656 24.199219 Z M 79.902344 24.199219 L 82.074219 8.46875 L 87.855469 8.46875 L 85.683594 24.199219 Z M 71.742188 13.222656 L 69.898438 18.46875 L 72.265625 18.46875 C 72.253906 18.417969 72.246094 18.367188 72.238281 18.308594 C 72.230469 18.253906 72.21875 18.199219 72.210938 18.152344 C 72.179688 17.890625 72.148438 17.636719 72.109375 17.382812 C 72.070312 17.132812 72.035156 16.875 72.007812 16.613281 C 71.9375 16.0625 71.882812 15.511719 71.847656 14.957031 C 71.808594 14.40625 71.816406 13.828125 71.867188 13.222656 Z M 61.667969 24.199219 L 69.402344 8.46875 L 75.691406 8.46875 L 79.007812 24.199219 L 72.960938 24.199219 L 72.699219 22.199219 L 68.457031 22.199219 L 67.667969 24.199219 Z M 27.429688 5.035156 L 17.734375 3.886719 C 18.15625 0.15625 20.429688 0.238281 22.4375 0.144531 C 26.839844 -0.0703125 28.363281 -0.101562 35.449219 0.511719 C 37.746094 0.710938 39.453125 2.289062 37.933594 5.625 C 35.710938 10.519531 30.34375 18.605469 24.496094 23.648438 C 23.210938 24.761719 21.710938 25.539062 18.359375 25.675781 C 14.539062 25.828125 9.335938 26.421875 5.53125 26.003906 C -0.328125 25.363281 -0.6875 24.449219 0.628906 21.546875 C 2.027344 18.472656 6.414062 13.21875 8.324219 11.003906 C 10.628906 8.332031 14.167969 7.628906 16.480469 7.679688 L 22.265625 7.808594 C 23.121094 7.828125 26.496094 7.652344 25.136719 11.949219 C 25.054688 12.199219 22.894531 15.867188 22.609375 16.355469 L 19.117188 16.179688 C 19.382812 15.449219 21.917969 11.285156 17.324219 11.289062 C 15.824219 11.289062 14.617188 11.414062 12.914062 14.730469 C 11.632812 17.21875 9.058594 19.457031 14.683594 20.25 L 19.378906 20.914062 C 21.128906 21.160156 22.671875 19.816406 23.558594 18.847656 C 25.429688 16.800781 26.5625 15.050781 28.277344 12.1875 C 30.472656 8.515625 31.351562 5.503906 27.429688 5.035156 Z M 47.167969 18.71875 C 51.054688 18.910156 54.945312 18.75 58.835938 18.769531 C 58.449219 22.214844 56.4375 23.261719 54.582031 23.332031 C 48.019531 23.59375 41.617188 23.84375 35.046875 24.007812 C 32.917969 24.0625 31.730469 23.335938 33.132812 20.253906 C 35.1875 15.730469 39.769531 8.257812 45.054688 3.460938 C 47.960938 0.824219 49.074219 0.949219 52.167969 0.824219 C 55.699219 0.679688 59.066406 0.902344 62.582031 1.285156 C 67.996094 1.875 68.328125 2.722656 67.109375 5.402344 C 65.816406 8.246094 64.445312 10.886719 62.679688 12.933594 C 60.550781 15.40625 58.972656 15.539062 56.839844 15.421875 L 51.492188 15.121094 C 50.703125 15.078125 46.996094 14.816406 48.253906 10.847656 C 48.328125 10.617188 50.597656 7.496094 50.859375 7.046875 L 53.808594 7.179688 C 53.5625 7.855469 51.722656 11.867188 55.246094 11.863281 C 56.632812 11.859375 57.347656 12.40625 58.554688 9.175781 C 58.90625 8.242188 61.527344 3.679688 56.019531 3.535156 L 51.636719 3.417969 C 50.003906 3.375 48.589844 4.433594 47.773438 5.328125 C 46.042969 7.21875 43.273438 11.195312 42.734375 14.234375 C 42.058594 18.03125 43.527344 18.542969 47.167969 18.71875 "/>
</g>
</g>
</svg>

<svg xmlns="http://www.w3.org/2000/svg" width="176pt" height="34.867" viewBox="0 0 176 26.15"><defs><clipPath id="a"><path d="M0 0h176v26.148H0Zm0 0"/></clipPath></defs><g clip-path="url(#a)"><path d="m168.05 24.2 2.169-15.731H176l-2.172 15.73Zm-9.812 0 1.457-10.56h-3.144l.715-5.171h11.972l-.71 5.172h-3.173l-1.457 10.558Zm-9.633 0 2.168-15.731h5.782l-2.172 15.73Zm-15.636 0 2.172-15.731h5.68l-.723 5.246h3.441l.723-5.246h5.656l-2.168 15.73h-5.66l.765-5.535h-3.44l-.763 5.535Zm-7.586-10.977-1.844 5.246h2.367a2 2 0 0 1-.027-.16c-.008-.055-.02-.11-.027-.157a23 23 0 0 0-.102-.77q-.06-.376-.102-.769-.106-.824-.16-1.656a11 11 0 0 1 .02-1.734Zm-10.074 10.976 7.73-15.73h6.293l3.316 15.73h-6.046l-.262-2h-4.242l-.79 2Zm-6.735 0 1.461-10.558h-3.148l.715-5.172h11.972l-.71 5.172h-3.173l-1.457 10.558ZM96.836 14.031q.123-.93-.34-1.246a2.2 2.2 0 0 0-1.074-.363h-.949l-.438 3.168h.364q.83-.001 1.562-.254c.484-.172.777-.61.875-1.305M87.286 24.2l2.171-15.73h7.121q1.244 0 2.371.207 1.131.208 1.992 1.039c.434.387.762.902.985 1.535a5.3 5.3 0 0 1 .289 1.973c0 .101 0 .207-.008.32q-.013.17-.031.316a5.3 5.3 0 0 1-1.07 2.536q-.879 1.149-2.473 1.39l3.308 6.414h-6.316l-2.062-5.195-.715 5.195Zm-7.384 0 2.172-15.73h5.781l-2.171 15.73Zm-8.16-10.976-1.844 5.246h2.368a2 2 0 0 1-.028-.16c-.008-.055-.02-.11-.027-.157a23 23 0 0 0-.102-.77q-.06-.376-.101-.769-.106-.824-.16-1.656a11 11 0 0 1 .02-1.734ZM61.668 24.199l7.734-15.73h6.29l3.316 15.73H72.96l-.262-2h-4.242l-.789 2ZM27.43 5.035l-9.696-1.148C18.156.157 20.43.238 22.437.145 26.84-.07 28.364-.102 35.45.512c2.297.199 4.004 1.777 2.485 5.113-2.223 4.895-7.59 12.98-13.438 18.023-1.285 1.114-2.785 1.891-6.137 2.028-3.82.152-9.023.746-12.828.328-5.86-.64-6.218-1.555-4.902-4.457 1.398-3.074 5.785-8.328 7.695-10.543 2.305-2.672 5.844-3.375 8.156-3.324l5.786.129c.855.02 4.23-.157 2.87 4.14-.081.25-2.241 3.918-2.527 4.406l-3.492-.175c.266-.73 2.801-4.895-1.793-4.89-1.5 0-2.707.124-4.41 3.44-1.281 2.489-3.855 4.727 1.77 5.52l4.695.664c1.75.246 3.293-1.098 4.18-2.066 1.87-2.047 3.003-3.797 4.718-6.66 2.196-3.672 3.075-6.684-.847-7.153M47.168 18.72c3.887.191 7.777.031 11.668.05-.387 3.446-2.398 4.493-4.254 4.563-6.562.262-12.965.512-19.535.676-2.129.055-3.317-.672-1.914-3.754C35.187 15.73 39.77 8.258 45.055 3.46 47.96.824 49.075.949 52.168.824c3.531-.144 6.898.078 10.414.461 5.414.59 5.746 1.438 4.527 4.117-1.293 2.844-2.664 5.485-4.43 7.532-2.128 2.472-3.706 2.605-5.84 2.488l-5.347-.3c-.789-.044-4.496-.306-3.238-4.274.074-.23 2.344-3.352 2.605-3.801l2.95.133c-.246.675-2.086 4.687 1.437 4.683 1.387-.004 2.102.543 3.309-2.687.351-.934 2.972-5.496-2.535-5.64l-4.383-.118c-1.633-.043-3.047 1.016-3.864 1.91-1.73 1.89-4.5 5.867-5.039 8.906-.675 3.797.793 4.309 4.434 4.485" style="stroke:none;fill-rule:evenodd;fill:#eb1d27;fill-opacity:1"/></g></svg>
